X: 40076
T: Thug Si Na Moide Na Geabhach Si Liom
R: jig
M: 6/8
K: Gmajor
|:G3 BAB|def gfe|dgB AGA|BAA ABA|
G3 BG/A/B|def gfe|dgB AGA|G3 G3:|
|:def gfg|eag fed|gfe dcB|BAA ABA|
G3 BG/A/B|def gfe|dgB AGA|G3 G3:|

